X:492
T:When the walls come tumblin' down
C:
N: Solo de Lou Reid sur le disque de Seldom Scene - Scene It All - Transcribed by Philippe Colleu
R:bluegrass
L:1/8
Q:1/4=200
M:4/4
K:C
"(101 bpm)"zE B,E B,D EA | "E"G^G E^C E2 E2 | "B"D^D BD AA G^G | "E"EB, ^CE G^G EC | 
E2 E6 | "A"GA zA AA dA | c/^c/A AA =c/^c/A zA | "E"G^G e2 ed B2 | G/^G/E [GE][GE] [GE][E3B,3] | 
"A"GA dA Ac AA | dA c^c [c3A3]A | "E"AD G^G eD ^d2 | "C#m"^cz ^G6 | "E"(3BB^c eB g^g ec | 
"B"e_B AG A2 G2 | "E"E2 G,^G, (3B,_B,B, (3A,G,G, | E3E {B,}EE ^GB | e8 | 


